img/arrow-5.svg

<svg fill="none" height="14" viewBox="0 0 16 14" width="16" xmlns="http://www.w3.org/2000/svg"><path d="m15.1446 7.37795c.3306-.33063.3306-.86668 0-1.19731l-5.38795-5.387903c-.33063-.330628-.86668-.330628-1.19731 0-.33063.330633-.33063.866683 0 1.197313l4.78926 4.78925-4.78926 4.7892c-.33063.3307-.33063.8667 0 1.1974.33063.3306.86668.3306 1.19731 0zm-14.144739-1.44528c-.46758 0-.846627.37905-.846627.84663s.379047.84662.846627.84662zm13.546039 0h-13.546039v1.69325h13.546039z" fill="#0080ff"/></svg>

<svg width="16" height="14" viewBox="0 0 16 14" fill="none" xmlns="http://www.w3.org/2000/svg">
<path d="M15.1446 7.37795C15.4752 7.04732 15.4752 6.51127 15.1446 6.18064L9.75665 0.792737C9.42602 0.462109 8.88997 0.462109 8.55934 0.792737C8.22871 1.12337 8.22871 1.65942 8.55934 1.99005L13.3486 6.7793L8.55934 11.5685C8.22871 11.8992 8.22871 12.4352 8.55934 12.7659C8.88997 13.0965 9.42602 13.0965 9.75665 12.7659L15.1446 7.37795ZM0.999861 5.93267C0.532281 5.93267 0.153234 6.31172 0.153234 6.7793C0.153234 7.24688 0.532281 7.62592 0.999861 7.62592V5.93267ZM14.5459 5.93267L0.999861 5.93267V7.62592L14.5459 7.62592V5.93267Z" fill="#0080FF"/>
</svg>
